X:1
T:Title
%%score { ( 1 3 4 ) | ( 2 5 ) }
L:1/8
Q:1/4=100
M:4/4
K:Eb
V:1 treble nm="Grand Piano"
V:3 treble 
V:4 treble 
V:2 bass 
V:5 bass 
V:1
 [B,EG]2 [CEA][B,EG] [B,EG][=A,EF][G,EF][A,Ec] | [B,DB]8 | B2 G=A B3 B |[M:7/8] d2 B c d3 | %4
w: Grace~Wilbur~Conant * * * * * *||||
[M:1/8] [Gd] |[M:4/4] [Fd]3 [DB] [EBe]2 [FBd]2 | c4 z4 | [Ee]2 [Ed][Ec] [EG]2 [Ec]2 | %8
w: ||||
[M:3/4] [B,DA]3 G F2 |[M:1/4] B2 |[M:4/4] e2 dc G2 c2 | z4 F4 | E2 [DG][DG] [Cc]2 [CEA]2 | %13
w: |||||
 [B,F]-[B,DF-][CF]G E4 |] %14
w: |
V:2
 E,2 E,E, C,C,F,,F,, | B,,8 | [G,DG]2 [G,B,][G,CG] [G,DG]3 [G,B,G] | %3
[M:7/8] [B,DB]2 [G,B,G] [=A,C=A] [B,DB]3 |[M:1/8][K:bass] [=E,B,] |[M:4/4] [F,B,]3 F, G,2 F,2 | %6
 E,2 z E B,2 A,2 | [G,B,]2 [B,,G,][B,,G,] [G,B,]2 [B,,_G,]2 |[M:3/4] F,2 B,,[G,B,D] [A,B,D]2 | %9
[M:1/4] [A,B,D]2 |[M:4/4] [G,B,E]2 [B,,G,]2 [E,B,E]2 [=E,G,_D]2 | [F,A,D]3 [G,B,D] D2- [B,,D]2 | %12
 [C,G,C]2 [B,,G,][B,,G,] [A,,A,]2 F,,2 | B,,2 z D [E,G,B,]4 |] %14
V:3
 x8 | x8 | x8 |[M:7/8] x7 |[M:1/8] x |[M:4/4] x8 | [GB]2 =A-[Ad] [DFB]4 | x8 |[M:3/4] x6 | %9
[M:1/4] x2 |[M:4/4] z2 E2 z4 | A3 G z2 A,2 | x8 | .E2 z2 z4 |] %14
V:4
 x8 | x8 | x8 |[M:7/8] x7 |[M:1/8] x |[M:4/4] x8 | z2 .F2 z4 | x8 |[M:3/4] x6 |[M:1/4] x2 | %10
[M:4/4] x8 | x8 | x8 | x8 |] %14
V:5
 x8 | x8 | x8 |[M:7/8] x7 |[M:1/8][K:bass] x |[M:4/4] x8 | z2 F,2 z4 | x8 |[M:3/4] x6 |[M:1/4] x2 | %10
[M:4/4] x8 | z4 [A,B,]2 z2 | x8 | z2 [B,,A,]2 z4 |] %14

